X: 29786
T: O'Brien's Tower
R: reel
M: 4/4
K: Gmajor
|:EF|GG,G,B, DGBG|~A2 GB AGED|GG,G,B, DGBG|AGED dBAB|
GG,G,B, DGBG|~A2 GB AGEA|GEED EFGB|AGEG D2:|
|:EF|G2 (3BAG dGBG|DD FD ADFD|G2 (3BAG dGBG|A,A,B,^C DDEF|
G2 (3BAG dGBG|DD FD ADFD|GEED EFGB|AGEG D2:|

